www/assets/duotune/general/gen014.svg

<?xml version="1.0" encoding="UTF-8"?>
<svg id="Camada_1" xmlns="http://www.w3.org/2000/svg" version="1.1" viewBox="0 0 24 24">
  <!-- Generator: Adobe Illustrator 29.0.0, SVG Export Plug-In . SVG Version: 2.1.0 Build 186)  -->
  <defs>
    <style>
      .st0, .st1 {
        fill: #fff;
      }

      .st1 {
        isolation: isolate;
        opacity: .3;
      }
    </style>
  </defs>
  <path class="st1" d="M21,22H3c-.6,0-1-.4-1-1V5c0-.6.4-1,1-1h18c.6,0,1,.4,1,1v16c0,.6-.4,1-1,1Z"/>
  <path class="st0" d="M6,6c-.6,0-1-.4-1-1v-2c0-.6.4-1,1-1s1,.4,1,1v2c0,.6-.4,1-1,1ZM11,5v-2c0-.6-.4-1-1-1s-1,.4-1,1v2c0,.6.4,1,1,1s1-.4,1-1ZM15,5v-2c0-.6-.4-1-1-1s-1,.4-1,1v2c0,.6.4,1,1,1s1-.4,1-1ZM19,5v-2c0-.6-.4-1-1-1s-1,.4-1,1v2c0,.6.4,1,1,1s1-.4,1-1Z"/>
  <path class="st0" d="M8.8,13.1c.4,0,.7-.1.9-.3s.4-.5.4-.9-.1-.6-.3-.8c-.2-.2-.5-.3-.8-.3s-.4,0-.6,0c-.2.1-.3.2-.4.3,0,.1-.2.2-.3.4s-.2.3-.2.5,0,0-.2.2c-.1,0-.2,0-.4,0s-.3,0-.4-.2c0,0-.2-.3-.2-.5s0-.4.2-.6c0-.2.3-.4.5-.6s.5-.4.9-.5c.4,0,.7-.2,1.2-.2s.7.1,1,.2c.3.1.6.3.8.4.2.1.4.4.5.7.1.3.2.5.2.8s-.1.7-.3,1c-.2.3-.4.6-.7.8.3.2.6.4.8.6.2.2.4.4.5.7.1.3.2.5.2.8s-.1.7-.2,1c0,.3-.4.6-.6.9-.2.3-.6.5-1,.6-.4.1-.8.2-1.3.2s-.9-.1-1.3-.3c-.4-.2-.7-.4-.9-.6-.2-.2-.4-.5-.5-.8-.1-.3-.2-.5-.2-.7s0-.4.2-.5c0-.1.3-.2.5-.2s.2,0,.3.1.2.1.2.2c.2.5.4.9.7,1.2.3.3.6.4,1,.4s.5,0,.7-.2.4-.3.6-.5c.2-.2.2-.5.2-.8,0-.5-.1-.8-.4-1.1-.3-.3-.6-.4-1-.4h-.7c-.2,0-.4-.1-.5-.2,0-.1-.2-.3-.2-.4,0-.2,0-.3.2-.5s.3-.2.6-.2h.3ZM15.3,17.5v-5.3c-1,.8-1.7,1.1-2,1.1s-.3-.1-.4-.2c0-.1-.2-.3-.2-.5s.1-.3.2-.4c.1,0,.3-.2.7-.4.5-.2.9-.5,1.1-.7.2-.2.5-.5.8-.8s.4-.5.4-.6.2,0,.4,0,.4,0,.5.2c.1.1.2.4.2.7v6.7c0,.8-.3,1.2-.8,1.2s-.4-.1-.6-.2c-.2-.1-.3-.4-.3-.7Z"/>
</svg>

<svg width="24" height="24" viewBox="0 0 24 24" fill="none" xmlns="http://www.w3.org/2000/svg">
<path opacity="0.3" d="M21 22H3C2.4 22 2 21.6 2 21V5C2 4.4 2.4 4 3 4H21C21.6 4 22 4.4 22 5V21C22 21.6 21.6 22 21 22Z" fill="currentColor"/>
<path d="M6 6C5.4 6 5 5.6 5 5V3C5 2.4 5.4 2 6 2C6.6 2 7 2.4 7 3V5C7 5.6 6.6 6 6 6ZM11 5V3C11 2.4 10.6 2 10 2C9.4 2 9 2.4 9 3V5C9 5.6 9.4 6 10 6C10.6 6 11 5.6 11 5ZM15 5V3C15 2.4 14.6 2 14 2C13.4 2 13 2.4 13 3V5C13 5.6 13.4 6 14 6C14.6 6 15 5.6 15 5ZM19 5V3C19 2.4 18.6 2 18 2C17.4 2 17 2.4 17 3V5C17 5.6 17.4 6 18 6C18.6 6 19 5.6 19 5Z" fill="currentColor"/>
<path d="M8.8 13.1C9.2 13.1 9.5 13 9.7 12.8C9.9 12.6 10.1 12.3 10.1 11.9C10.1 11.6 10 11.3 9.8 11.1C9.6 10.9 9.3 10.8 9 10.8C8.8 10.8 8.59999 10.8 8.39999 10.9C8.19999 11 8.1 11.1 8 11.2C7.9 11.3 7.8 11.4 7.7 11.6C7.6 11.8 7.5 11.9 7.5 12.1C7.5 12.2 7.4 12.2 7.3 12.3C7.2 12.4 7.09999 12.4 6.89999 12.4C6.69999 12.4 6.6 12.3 6.5 12.2C6.4 12.1 6.3 11.9 6.3 11.7C6.3 11.5 6.4 11.3 6.5 11.1C6.6 10.9 6.8 10.7 7 10.5C7.2 10.3 7.49999 10.1 7.89999 10C8.29999 9.90003 8.60001 9.80003 9.10001 9.80003C9.50001 9.80003 9.80001 9.90003 10.1 10C10.4 10.1 10.7 10.3 10.9 10.4C11.1 10.5 11.3 10.8 11.4 11.1C11.5 11.4 11.6 11.6 11.6 11.9C11.6 12.3 11.5 12.6 11.3 12.9C11.1 13.2 10.9 13.5 10.6 13.7C10.9 13.9 11.2 14.1 11.4 14.3C11.6 14.5 11.8 14.7 11.9 15C12 15.3 12.1 15.5 12.1 15.8C12.1 16.2 12 16.5 11.9 16.8C11.8 17.1 11.5 17.4 11.3 17.7C11.1 18 10.7 18.2 10.3 18.3C9.9 18.4 9.5 18.5 9 18.5C8.5 18.5 8.1 18.4 7.7 18.2C7.3 18 7 17.8 6.8 17.6C6.6 17.4 6.4 17.1 6.3 16.8C6.2 16.5 6.10001 16.3 6.10001 16.1C6.10001 15.9 6.2 15.7 6.3 15.6C6.4 15.5 6.6 15.4 6.8 15.4C6.9 15.4 7.00001 15.4 7.10001 15.5C7.20001 15.6 7.3 15.6 7.3 15.7C7.5 16.2 7.7 16.6 8 16.9C8.3 17.2 8.6 17.3 9 17.3C9.2 17.3 9.5 17.2 9.7 17.1C9.9 17 10.1 16.8 10.3 16.6C10.5 16.4 10.5 16.1 10.5 15.8C10.5 15.3 10.4 15 10.1 14.7C9.80001 14.4 9.50001 14.3 9.10001 14.3C9.00001 14.3 8.9 14.3 8.7 14.3C8.5 14.3 8.39999 14.3 8.39999 14.3C8.19999 14.3 7.99999 14.2 7.89999 14.1C7.79999 14 7.7 13.8 7.7 13.7C7.7 13.5 7.79999 13.4 7.89999 13.2C7.99999 13 8.2 13 8.5 13H8.8V13.1ZM15.3 17.5V12.2C14.3 13 13.6 13.3 13.3 13.3C13.1 13.3 13 13.2 12.9 13.1C12.8 13 12.7 12.8 12.7 12.6C12.7 12.4 12.8 12.3 12.9 12.2C13 12.1 13.2 12 13.6 11.8C14.1 11.6 14.5 11.3 14.7 11.1C14.9 10.9 15.2 10.6 15.5 10.3C15.8 10 15.9 9.80003 15.9 9.70003C15.9 9.60003 16.1 9.60004 16.3 9.60004C16.5 9.60004 16.7 9.70003 16.8 9.80003C16.9 9.90003 17 10.2 17 10.5V17.2C17 18 16.7 18.4 16.2 18.4C16 18.4 15.8 18.3 15.6 18.2C15.4 18.1 15.3 17.8 15.3 17.5Z" fill="currentColor"/>
</svg>
